icons/cleaning_fill.svg

<svg width="48" height="48" viewBox="0 0 48 48" fill="none" xmlns="http://www.w3.org/2000/svg">
<path fill-rule="evenodd" clip-rule="evenodd" d="M22.0621 25.6021L11.3291 5.4162C11.0698 4.92856 11.2549 4.32307 11.7426 4.06378C12.2302 3.8045 12.8357 3.98962 13.095 4.47726L23.828 24.6632L25.3504 23.8538C27.3009 22.8167 29.7229 23.5571 30.7601 25.5077L31.4081 26.7265L38.2771 36.7808L29.5401 41.4263L26.5133 35.4432L24.7287 36.3461L27.7739 42.3655L24.0282 44.3571L19.5334 33.0391L18.886 31.8212C17.8489 29.8707 18.5894 27.4487 20.5399 26.4116L22.0621 25.6021ZM26.2893 25.6197L21.4789 28.1775C20.5036 28.696 20.1333 29.907 20.6519 30.8823L21.2994 32.1001L29.6417 27.6644L28.9942 26.4466C28.4756 25.4714 27.2646 25.1011 26.2893 25.6197Z" fill="black"/>
<path d="M17.7682 35.3599C17.4148 34.9358 16.7846 34.8783 16.3603 35.2314L16.3619 35.2301L16.3505 35.2392C16.3385 35.2488 16.3177 35.265 16.2885 35.287C16.2299 35.3311 16.1377 35.3981 16.0141 35.4805C15.7664 35.6456 15.3956 35.8708 14.9201 36.0972C13.9666 36.5513 12.6144 37.0001 11 37.0001C10.4477 37.0001 10 37.4478 10 38.0001C10 38.5524 10.4477 39.0001 11 39.0001C12.9856 39.0001 14.6334 38.4489 15.7799 37.9029C16.3544 37.6294 16.8086 37.3545 17.1235 37.1446C17.2811 37.0395 17.4045 36.9503 17.4912 36.885C17.5346 36.8523 17.5689 36.8256 17.5938 36.8058L17.6241 36.7815L17.634 36.7735L17.6375 36.7705L17.639 36.7693L17.6402 36.7683C18.0645 36.4147 18.1218 35.7842 17.7682 35.3599Z" fill="black"/>
<path d="M19.832 40.4454C20.1384 40.9049 20.0142 41.5258 19.5547 41.8321L19.5526 41.8335L19.5495 41.8356L19.5399 41.8419L19.5077 41.8628C19.4806 41.8803 19.4423 41.9047 19.3935 41.9351C19.296 41.9957 19.1564 42.0803 18.9805 42.1808C18.6295 42.3814 18.1304 42.6476 17.5311 42.9139C16.3502 43.4388 14.7016 44.0001 13 44.0001C12.4477 44.0001 12 43.5524 12 43.0001C12 42.4478 12.4477 42.0001 13 42.0001C14.2984 42.0001 15.6498 41.5614 16.7189 41.0863C17.2446 40.8526 17.683 40.6187 17.9882 40.4443C18.1405 40.3573 18.2587 40.2857 18.3369 40.2369C18.376 40.2126 18.4051 40.1941 18.4234 40.1822L18.4427 40.1697L18.4453 40.168C18.9048 39.862 19.5258 39.986 19.832 40.4454Z" fill="black"/>
</svg>

<svg
  xmlns="http://www.w3.org/2000/svg"
  width="24"
  height="24"
  viewBox="0 0 24 24"
  fill="none"
  stroke="currentColor"
  stroke-width="2"
  stroke-linecap="round"
  stroke-linejoin="round"
>
  <path
    fill-rule="evenodd"
    d="M22.062 25.602 11.33 5.416a1 1 0 1 1 1.766-.939l10.733 20.186 1.522-.81a4 4 0 0 1 5.41 1.655l.648 1.219 6.87 10.054-8.738 4.645-3.027-5.983-1.784.903 3.045 6.02-3.746 1.991-4.495-11.318-.647-1.218a4 4 0 0 1 1.654-5.41zm4.227.018-4.81 2.557a2 2 0 0 0-.827 2.705l.647 1.218 8.343-4.436-.648-1.217a2 2 0 0 0-2.705-.827"
    clip-rule="evenodd"
  />
  <path d="M17.768 35.36a1 1 0 0 0-1.408-.129h.002l-.011.008-.062.048a6 6 0 0 1-.275.194c-.248.165-.618.39-1.094.616A9.15 9.15 0 0 1 11 37a1 1 0 1 0 0 2c1.986 0 3.633-.551 4.78-1.097a11 11 0 0 0 1.344-.758 8 8 0 0 0 .47-.34l.03-.023.01-.008.003-.004h.002l.001-.002a1 1 0 0 0 .128-1.408" />
  <path d="M19.832 40.445a1 1 0 0 1-.277 1.387l-.002.002-.004.002-.01.006-.031.02-.114.073a16.244 16.244 0 0 1-1.862.979C16.35 43.439 14.701 44 13 44a1 1 0 1 1 0-2c1.298 0 2.65-.439 3.719-.914a14 14 0 0 0 1.618-.85q.059-.035.086-.054l.02-.012.002-.002a1 1 0 0 1 1.387.277" />
</svg>
